X: 1
M:4/4
K:F
Q:1/4=70
L:1/4
DAAB | GA3 :| DGGA | FG3 | EGEA | A/2F/2 D3 |:
w:Qua-mor não men-ga-na Se dan-ti-ga cha-ma Mal vi-va-mar-gu - ra
w:Com su-a bran-du-ra
dfcA | G/2 c/2 d3 :| DAAB | GA3 | EGEA | A/2F/2 D3|]
w:Eas vo-zes em-bar - cam Quan-to mais sea-par-tam Mais seou-vo seu gri - to
w:Num si-lên-cioa-fli - to
</abc>

_Que amor não me en_ga_na     Dm C Dm
_Com a sua bran_du_ra         Dm C Dm 
_Se de ant_iga _cha_ma        Dm C Am C
_Mal vive _a amar_gura         G Am Dm

Duma mancha negra
Duma pedra fria
Que amor não se entrega
Na noite vazia

_E as _vozes em_bar_cam        Dm C G Dm
Num si_lêncio a_fli_to         C G Dm
Quanto mais se a_par_tam       C Dm
_Mais se _ouve o seu _grito     C Am Dm

Muito à flor das águas
Noite marinheira
Vem devagarinho
Para a minha beira

Em novas coutadas
Junto de uma hera
Nascem flores vermelhas
Pela Primavera

Assim tu souberas
Irmã cotovia
Dizer-me se esperas
O nascer do dia
